symbols/web/wifi_tethering/materialsymbolsoutlined/wifi_tethering_wght500grad200_40px.svg

<svg xmlns="http://www.w3.org/2000/svg" height="40" width="40"><path d="M20 25.542q-1.625 0-2.75-1.125t-1.125-2.75q0-1.625 1.125-2.75T20 17.792q1.625 0 2.75 1.146 1.125 1.145 1.125 2.729 0 1.625-1.146 2.75T20 25.542ZM12.75 29.5q-1.583-1.458-2.5-3.479t-.917-4.354q0-4.459 3.105-7.563Q15.542 11 20 11t7.562 3.104q3.105 3.104 3.105 7.563 0 2.333-.917 4.333t-2.5 3.5l-2.542-2.542q1.084-.958 1.73-2.312.645-1.354.645-2.979 0-2.959-2.062-5.021-2.063-2.063-5.021-2.063-2.958 0-5 2.063-2.042 2.062-2.042 5.021 0 1.583.625 2.958.625 1.375 1.709 2.333Zm-4.792 4.792q-2.541-2.375-3.979-5.625-1.437-3.25-1.437-7 0-3.625 1.375-6.813 1.375-3.187 3.75-5.541 2.375-2.355 5.541-3.73Q16.375 4.208 20 4.208t6.792 1.375q3.166 1.375 5.541 3.73 2.375 2.354 3.75 5.562t1.375 6.792q0 3.75-1.437 6.979-1.438 3.229-3.979 5.646L29.5 31.75q2-1.917 3.188-4.479 1.187-2.563 1.187-5.604 0-5.792-4.042-9.834Q25.792 7.792 20 7.792t-9.812 4.041q-4.021 4.042-4.021 9.834 0 3.041 1.145 5.604 1.146 2.562 3.188 4.479Z"/></svg>

<svg xmlns="http://www.w3.org/2000/svg" height="40" width="40"><path d="M20 25.542Q18.375 25.542 17.25 24.417Q16.125 23.292 16.125 21.667Q16.125 20.042 17.25 18.917Q18.375 17.792 20 17.792Q21.625 17.792 22.75 18.938Q23.875 20.083 23.875 21.667Q23.875 23.292 22.729 24.417Q21.583 25.542 20 25.542ZM12.75 29.5Q11.167 28.042 10.25 26.021Q9.333 24 9.333 21.667Q9.333 17.208 12.438 14.104Q15.542 11 20 11Q24.458 11 27.562 14.104Q30.667 17.208 30.667 21.667Q30.667 24 29.75 26Q28.833 28 27.25 29.5L24.708 26.958Q25.792 26 26.438 24.646Q27.083 23.292 27.083 21.667Q27.083 18.708 25.021 16.646Q22.958 14.583 20 14.583Q17.042 14.583 15 16.646Q12.958 18.708 12.958 21.667Q12.958 23.25 13.583 24.625Q14.208 26 15.292 26.958ZM7.958 34.292Q5.417 31.917 3.979 28.667Q2.542 25.417 2.542 21.667Q2.542 18.042 3.917 14.854Q5.292 11.667 7.667 9.313Q10.042 6.958 13.208 5.583Q16.375 4.208 20 4.208Q23.625 4.208 26.792 5.583Q29.958 6.958 32.333 9.313Q34.708 11.667 36.083 14.875Q37.458 18.083 37.458 21.667Q37.458 25.417 36.021 28.646Q34.583 31.875 32.042 34.292L29.5 31.75Q31.5 29.833 32.688 27.271Q33.875 24.708 33.875 21.667Q33.875 15.875 29.833 11.833Q25.792 7.792 20 7.792Q14.208 7.792 10.188 11.833Q6.167 15.875 6.167 21.667Q6.167 24.708 7.312 27.271Q8.458 29.833 10.5 31.75Z"/></svg>
